X:061
U: ~ = !turn!
%%topmargin 3cm
T:The Earl's Chair
B:Traditional Irish Fiddle Tunes. Randy Miller and Jack Perron.
Z:Transcribed by Ralph Palmer
R:Reel
M:C|
L:1/8
K:G
JPB2 dB {/c}BAFA | JPB2 dB {/c}BAFB | AF ((3{/G}FEF) DF ((3{/G}FEF) | AFdB ADFA |
JPB2 dB {/c}BAFA | JPB2 dB {/c}BAFB | AFAB defd | edef d4 ::
e3 B d2 Bd | e2 eB dBAB | efeB d^cde | fedB BDFA |
e3 f eB ((3{/c}BAB) | gB ((3{/c}BAB) defg | afbf afeg | fedB ADFA :|]
